src/assets/images/login/pass_icon.svg

<svg width="28" height="28" viewBox="0 0 28 28" fill="none" xmlns="http://www.w3.org/2000/svg">
<mask id="mask0_61_296" style="mask-type:alpha" maskUnits="userSpaceOnUse" x="0" y="0" width="28" height="28">
<rect width="28" height="28" fill="#D9D9D9"/>
</mask>
<g mask="url(#mask0_61_296)">
<path d="M24.6261 13.2672C24.6232 11.7406 23.6607 10.4112 22.2745 9.97034C21.736 9.79841 21.1774 9.77278 20.6162 9.79841C20.367 9.80976 20.2266 9.82144 20.2555 9.44319C20.3242 8.51799 20.3356 7.58145 20.2954 6.65041C20.1636 3.58546 18.021 1.0016 15.0018 0.213955C12.1373 -0.533467 9.06943 0.723915 7.42244 3.25879C6.10472 5.28111 6.27957 7.50651 6.38533 9.79808C5.99864 9.79808 5.64926 9.78965 5.30247 9.79808C3.47771 9.84674 2.02277 11.2903 2.01401 13.1122C1.99682 16.9362 1.9939 20.7599 2.01401 24.584C2.02537 26.4431 3.47187 27.9643 5.31967 27.9753C10.6817 28.0097 16.047 28.0068 21.409 27.9753C23.1936 27.9639 24.6174 26.46 24.6258 24.67C24.6404 20.8696 24.6375 17.0683 24.6261 13.2672ZM15.0705 19.002C14.7899 19.2138 14.704 19.4147 14.7124 19.7439C14.7325 20.5802 14.7267 21.4198 14.7182 22.2561C14.704 23.2215 14.1567 23.8028 13.2918 23.7886C12.4581 23.7772 11.9368 23.2043 11.9225 22.2704C11.9141 21.7805 11.9083 21.2936 11.9225 20.8037C11.9485 19.9528 11.9196 19.234 11.1521 18.5466C10.3242 17.8021 10.3099 16.6705 10.7969 15.6308C11.301 14.5593 12.1889 14.061 13.1455 13.9923C14.5119 14.0065 15.6032 14.8143 15.9785 15.9374C16.3506 17.0569 16.0129 18.2887 15.0705 19.002ZM17.0124 9.80717C15.8008 9.78413 14.5891 9.79841 13.3775 9.79841C12.1428 9.79841 10.9055 9.77278 9.67087 9.80976C9.18946 9.82436 9.09506 9.65794 9.11225 9.2226C9.14664 8.47777 9.11517 7.73035 9.1236 6.98552C9.14956 4.65372 10.9853 2.81209 13.2915 2.80074C15.6003 2.78938 17.4649 4.6109 17.5136 6.9427C17.5308 7.73619 17.4906 8.52967 17.525 9.32024C17.5425 9.73807 17.3877 9.81268 17.0124 9.80717Z" fill="#D0D0D0"/>
</g>
</svg>

<svg xmlns="http://www.w3.org/2000/svg" width="28" height="28" fill="none"><mask id="a" width="28" height="28" x="0" y="0" maskUnits="userSpaceOnUse" style="mask-type:alpha"><path fill="#D9D9D9" d="M0 0h28v28H0z"/></mask><g mask="url(#a)"><path fill="#D0D0D0" d="M24.626 13.267c-.003-1.526-.965-2.856-2.352-3.297-.538-.172-1.097-.197-1.658-.172-.249.012-.39.023-.36-.355.068-.925.08-1.862.04-2.793-.132-3.065-2.275-5.648-5.294-6.436-2.865-.747-5.933.51-7.58 3.045C6.105 5.28 6.28 7.507 6.385 9.799c-.386 0-.736-.01-1.083 0-1.824.048-3.28 1.491-3.288 3.313-.017 3.824-.02 7.648 0 11.472.011 1.86 1.458 3.38 3.306 3.391 5.362.035 10.727.032 16.089 0 1.785-.011 3.208-1.515 3.217-3.305.014-3.8.011-7.602 0-11.403Zm-9.556 5.735c-.28.212-.366.413-.358.742.02.836.015 1.676.006 2.512-.014.965-.561 1.547-1.426 1.533-.834-.012-1.355-.585-1.37-1.519-.008-.49-.014-.976 0-1.466.026-.851-.002-1.57-.77-2.257-.828-.745-.842-1.877-.355-2.916.504-1.072 1.392-1.57 2.348-1.639 1.367.014 2.458.822 2.834 1.945.372 1.12.034 2.352-.909 3.065Zm1.942-9.195c-1.211-.023-2.423-.009-3.635-.009-1.234 0-2.472-.025-3.706.012-.482.014-.576-.152-.559-.587.035-.745.003-1.493.012-2.237.026-2.332 1.861-4.174 4.167-4.185 2.31-.012 4.174 1.81 4.223 4.142.017.793-.023 1.587.011 2.377.018.418-.137.493-.513.487Z"/></g></svg>
